X:187
T:Cat Jumped Into the Mouseâ€™s Hole, The
N:From the playing of Paddy Jones and Rus Bradburd
N:Transcribed by Bruce Thomson
R:Slide
L:1/8
M:12/8
K:Amix
g2f|:â€Aâ€e2A ABd e2dB2d|e2A ABA â€œGâ€G2A Bcd|
â€œAâ€e2A ABde2dB3|[1â€³Gâ€dBA GAB â€œAâ€A3g2f:|[2â€ Gâ€eBA GABâ€Aâ€A6|]
|:â€Aâ€e3 efe aba g2e|â€Gâ€d2B d2Bd2B d3|
â€œAâ€e3efe aba g2e|â€Gâ€dBA GAB â€œAâ€A6:|

